; generated by PrusaSlicer 2.9.4 on 2026-04-13 at 22:58:21 UTC


;
;
; 

; external perimeters extrusion width = 0.45mm
; perimeters extrusion width = 0.45mm
; infill extrusion width = 0.45mm
; solid infill extrusion width = 0.45mm
; top infill extrusion width = 0.40mm
; first layer extrusion width = 0.42mm

; external perimeters extrusion width = 0.45mm
; perimeters extrusion width = 0.45mm
; infill extrusion width = 0.45mm
; solid infill extrusion width = 0.45mm
; top infill extrusion width = 0.40mm
; first layer extrusion width = 0.42mm

M73 P0 R102
M73 Q0 S103
M201 X1000 Y1000 Z200 E5000 ; sets maximum accelerations, mm/sec^2
M203 X200 Y200 Z12 E120 ; sets maximum feedrates, mm / sec
M204 S1250 T1250 ; sets acceleration (S) and retract acceleration (R), mm/sec^2
M205 X8.00 Y8.00 Z0.40 E4.50 ; sets the jerk limits, mm/sec
M205 S0 T0 ; sets the minimum extruding and travel feed rate, mm/sec

; printing object 3-key-keyboard-case-top.stl id:0 copy 0
; stop printing object 3-key-keyboard-case-top.stl id:0 copy 0
; printing object 3-key-keyboard-case-bottom.stl id:1 copy 0
; stop printing object 3-key-keyboard-case-bottom.stl id:1 copy 0

;TYPE:Custom
M862.3 P "MK3S" ; printer model check
M862.1 P0.4 ; nozzle diameter check
M115 U3.14.1 ; tell printer latest fw version
G90 ; use absolute coordinates
M83 ; extruder relative mode
M104 S215 ; set extruder temp
M140 S60 ; set bed temp
M190 S60 ; wait for bed temp
M109 S215 ; wait for extruder temp
G28 W ; home all without mesh bed level
G80 X86.1229 Y64.6229 W77.7542 H80.7542 ; mesh bed levelling

G1 Z0.2 F720
G1 Y-3 F1000 ; go outside print area
G92 E0
G1 X60 E9 F1000 ; intro line
G1 X100 E12.5 F1000 ; intro line
M73 P0 R101

G92 E0
M221 S95

; Don't change E values below. Excessive value can damage the printer.
M907 E430 ; set extruder motor current
G21 ; set units to millimeters
G90 ; use absolute coordinates
M83 ; use relative distances for extrusion

M900 K0.05 ; Filament gcode LA 1.5
M900 K30 ; Filament gcode LA 1.0




M107
;LAYER_CHANGE
;Z:0.2
;HEIGHT:0.2
G1 E-.8 F2100
G1 Z.6 F720
G1 X87.398 Y67.505 F10800
G1 Z.2 F720
M73 Q0 S102
G1 E.8 F2100
M204 S800
;TYPE:Skirt/Brim
;WIDTH:0.42
G1 F1200
G1 X88.007 Y66.75 E.03041
G1 X88.727 Y66.1 E.03041
G1 X89.847 Y65.414 E.04118
G1 X91.363 Y64.921 E.04998
G1 X92.5 Y64.811 E.03582
G1 X157.672 Y64.818 E2.04342
G1 X158.637 Y64.921 E.03043
G1 X159.574 Y65.174 E.03043
G1 X160.995 Y65.898 E.05
G1 X161.75 Y66.507 E.03041
G1 X162.4 Y67.228 E.03044
G1 X163.086 Y68.346 E.04113
G1 X163.432 Y69.253 E.03044
G1 X163.682 Y70.828 E.05
G1 X163.689 Y139 E2.13749
G1 X163.579 Y140.137 E.03582
G1 X163.326 Y141.074 E.03043
G1 X162.602 Y142.495 E.05
G1 X161.993 Y143.25 E.03041
G1 X161.272 Y143.9 E.03044
G1 X160.153 Y144.586 E.04115
G1 X158.637 Y145.079 E.04998
G1 X157.5 Y145.189 E.03582
G1 X92.5 Y145.189 E2.03803
G1 X91.363 Y145.079 E.03582
G1 X90.426 Y144.826 E.03043
G1 X89.005 Y144.102 E.05
G1 X88.25 Y143.493 E.03041
G1 X87.398 Y142.495 E.04114
G1 X86.914 Y141.653 E.03045
G1 X86.421 Y140.137 E.04998
G1 X86.312 Y139.01 E.0355
G1 X86.311 Y71 E2.13241
G1 X86.421 Y69.863 E.03582
G1 X86.674 Y68.926 E.03043
G1 X87.371 Y67.559 E.04811
M204 S1000
;WIPE_START
G1 F8640
G1 X87.398 Y67.505 E-.01394
G1 X88.007 Y66.75 E-.22398
G1 X88.727 Y66.1 E-.22398
G1 X89.847 Y65.414 E-.30327
G1 X89.99 Y65.367 E-.03483
;WIPE_END
G1 Z.6 F720
; printing object 3-key-keyboard-case-top.stl id:0 copy 0
G1 X117.22 Y92.277 F10800
G1 Z.2 F720
G1 E.8 F2100
M204 S800
;TYPE:Perimeter
;WIDTH:0.419999
G1 F1200
G1 X117.096 Y92.148 E.00561
G1 X116.985 Y91.922 E.00789
G1 X116.936 Y91.621 E.00956
G1 X116.936 Y87.61 E.12576
G1 X116.453 Y87.427 E.01619
G1 X116.227 Y87.125 E.01183
G1 X116.136 Y86.721 E.01298
G1 X116.136 Y82.279 E.13928
G1 X116.227 Y81.875 E.01298
G1 X116.453 Y81.573 E.01183
G1 X116.936 Y81.39 E.01619
G1 X116.936 Y77.379 E.12576
G1 X116.985 Y77.078 E.00956
G1 X117.215 Y76.709 E.01363
G1 X117.46 Y76.534 E.00944
G1 X117.768 Y76.436 E.01013
G1 X132.121 Y76.436 E.45003
G1 X132.409 Y76.481 E.00914
G1 X132.684 Y76.622 E.00969
G1 X132.904 Y76.852 E.00998
G1 X133.015 Y77.078 E.00789
G1 X133.064 Y77.379 E.00956
G1 X133.064 Y91.621 E.44655
G1 X133.015 Y91.922 E.00956
G1 X132.785 Y92.291 E.01363
G1 X132.54 Y92.466 E.00944
G1 X132.232 Y92.564 E.01013
G1 X117.879 Y92.564 E.45003
G1 X117.591 Y92.519 E.00914
G1 X117.316 Y92.378 E.00969
G1 X117.261 Y92.321 E.00248
M204 S1000
G1 X117.495 Y92.012 F10800
M204 S800
G1 F1200
G1 X117.409 Y91.937 E.00358
G1 X117.313 Y91.665 E.00904
G1 X117.313 Y87.287 E.13727
G1 X117.079 Y87.287 E.00734
G1 X116.703 Y87.145 E.0126
G1 X116.567 Y86.964 E.0071
G1 X116.513 Y86.721 E.0078
G1 X116.513 Y82.279 E.13928
G1 X116.567 Y82.036 E.0078
G1 X116.703 Y81.855 E.0071
G1 X117.079 Y81.713 E.0126
G1 X117.313 Y81.713 E.00734
G1 X117.313 Y77.379 E.13589
G1 X117.409 Y77.063 E.01036
G1 X117.627 Y76.872 E.00909
G1 X117.879 Y76.813 E.00811
G1 X132.121 Y76.813 E.44655
G1 X132.373 Y76.872 E.00811
G1 X132.591 Y77.063 E.00909
G1 X132.687 Y77.379 E.01036
G1 X132.687 Y91.621 E.44655
G1 X132.658 Y91.802 E.00575
G1 X132.52 Y92.023 E.00817
G1 X132.294 Y92.16 E.00829
G1 X132.121 Y92.187 E.00549
G1 X117.879 Y92.187 E.44655
G1 X117.627 Y92.128 E.00811
G1 X117.54 Y92.052 E.00362
M204 S1000
G1 X117.732 Y91.722 F10800
M204 S800
;TYPE:External perimeter
G1 F1200
G1 X117.69 Y91.621 E.00343
G1 X117.69 Y86.91 E.14771
G1 X117.079 Y86.91 E.01916
G1 X116.953 Y86.862 E.00423
G1 X116.89 Y86.721 E.00484
G1 X116.89 Y82.279 E.13928
G1 X116.953 Y82.138 E.00484
G1 X117.079 Y82.09 E.00423
G1 X117.69 Y82.09 E.01916
G1 X117.69 Y77.379 E.14771
G1 X117.766 Y77.227 E.00533
G1 X117.831 Y77.19 E.00235
G1 X132.121 Y77.19 E.44805
G1 X132.254 Y77.245 E.00451
G1 X132.31 Y77.379 E.00455
G1 X132.31 Y91.621 E.44655
G1 X132.254 Y91.755 E.00455
G1 X132.121 Y91.81 E.00451
G1 X117.879 Y91.81 E.44655
G1 X117.768 Y91.765 E.00376
M204 S1000
;WIPE_START
G1 F8640
G1 X117.732 Y91.722 E-.01295
G1 X117.69 Y91.621 E-.02526
G1 X117.69 Y88.322 E-.76179
;WIPE_END
G1 Z.6 F720
G1 X151.773 Y92.298 F10800
G1 Z.2 F720
G1 E.8 F2100
M204 S800
;TYPE:Perimeter
G1 F1200
G1 X151.474 Y92.496 E.01124
G1 X151.121 Y92.564 E.01127
G1 X136.879 Y92.564 E.44655
G1 X136.591 Y92.519 E.00914
G1 X136.316 Y92.378 E.00969
G1 X136.096 Y92.148 E.00998
G1 X135.985 Y91.922 E.00789
G1 X135.936 Y91.621 E.00956
G1 X135.936 Y87.61 E.12576
G1 X135.453 Y87.427 E.01619
G1 X135.227 Y87.125 E.01183
G1 X135.136 Y86.721 E.01298
G1 X135.136 Y82.279 E.13928
G1 X135.227 Y81.875 E.01298
G1 X135.453 Y81.573 E.01183
G1 X135.936 Y81.39 E.01619
G1 X135.936 Y77.379 E.12576
G1 X135.985 Y77.078 E.00956
G1 X136.215 Y76.709 E.01363
G1 X136.46 Y76.534 E.00944
G1 X136.768 Y76.436 E.01013
G1 X149.603 Y76.436 E.40243
G1 X151.121 Y76.436 E.0476
G1 X151.491 Y76.511 E.01184
G1 X151.788 Y76.712 E.01124
G1 X151.991 Y77.014 E.01141
G1 X152.064 Y77.379 E.01167
G1 X152.064 Y91.621 E.44655
G1 X151.991 Y91.986 E.01167
G1 X151.811 Y92.253 E.0101
M204 S1000
G1 X151.519 Y92.003 F10800
M204 S800
G1 F1200
G1 X151.469 Y92.068 E.00257
G1 X151.256 Y92.171 E.00742
G1 X150.488 Y92.187 E.02409
G1 X136.879 Y92.187 E.4267
G1 X136.627 Y92.128 E.00811
G1 X136.409 Y91.937 E.00909
G1 X136.313 Y91.665 E.00904
G1 X136.313 Y87.287 E.13727
G1 X136.079 Y87.287 E.00734
G1 X135.703 Y87.145 E.0126
G1 X135.567 Y86.964 E.0071
G1 X135.513 Y86.721 E.0078
G1 X135.513 Y82.279 E.13928
G1 X135.567 Y82.036 E.0078
G1 X135.703 Y81.855 E.0071
G1 X136.079 Y81.713 E.0126
G1 X136.313 Y81.713 E.00734
G1 X136.313 Y77.379 E.13589
G1 X136.409 Y77.063 E.01036
G1 X136.627 Y76.872 E.00909
G1 X136.879 Y76.813 E.00811
G1 X151.121 Y76.813 E.44655
G1 X151.343 Y76.858 E.0071
G1 X151.568 Y77.031 E.0089
G1 X151.668 Y77.232 E.00704
G1 X151.687 Y77.989 E.02374
G1 X151.687 Y91.621 E.42742
G1 X151.643 Y91.84 E.007
G1 X151.555 Y91.955 E.00454
M204 S1000
G1 X151.263 Y91.724 F10800
M204 S800
;TYPE:External perimeter
G1 F1200
G1 X151.245 Y91.764 E.00138
G1 X151.121 Y91.81 E.00415
G1 X136.879 Y91.81 E.44655
G1 X136.746 Y91.755 E.00451
G1 X136.69 Y91.621 E.00455
G1 X136.69 Y86.91 E.14771
G1 X136.079 Y86.91 E.01916
G1 X135.953 Y86.862 E.00423
G1 X135.89 Y86.721 E.00484
G1 X135.89 Y82.279 E.13928
G1 X135.953 Y82.138 E.00484
G1 X136.079 Y82.09 E.00423
G1 X136.69 Y82.09 E.01916
G1 X136.69 Y77.379 E.14771
G1 X136.766 Y77.227 E.00533
G1 X136.879 Y77.19 E.00373
G1 X151.121 Y77.19 E.44655
G1 X151.264 Y77.255 E.00493
G1 X151.31 Y77.379 E.00415
G1 X151.31 Y91.621 E.44655
G1 X151.288 Y91.669 E.00166
M204 S1000
;WIPE_START
G1 F8640
G1 X151.263 Y91.724 E-.01395
G1 X151.245 Y91.764 E-.01013
G1 X151.121 Y91.81 E-.03054
G1 X147.893 Y91.81 E-.74538
;WIPE_END
G1 Z.6 F720
G1 X156.351 Y74.715 F10800
G1 Z.2 F720
G1 E.8 F2100
M204 S800
;TYPE:Perimeter
G1 F1200
G1 X156.037 Y74.764 E.00996
G1 X155.444 Y74.689 E.01874
G1 X155.163 Y74.597 E.00927
G1 X154.673 Y74.335 E.01742
G1 X154.264 Y73.944 E.01774
G1 X154.093 Y73.71 E.00909
G1 X153.86 Y73.236 E.01656
G1 X153.749 Y72.661 E.01836
G1 X153.746 Y72.358 E.0095
G1 X153.804 Y71.975 E.01215
G1 X153.89 Y71.701 E.009
G1 X154.084 Y71.307 E.01377
G1 X154.264 Y71.056 E.00968
G1 X154.556 Y70.764 E.01295
G1 X154.795 Y70.59 E.00927
G1 X155.429 Y70.314 E.02168
G1 X155.973 Y70.237 E.01723
G1 X156.543 Y70.309 E.01801
G1 X156.866 Y70.418 E.01069
G1 X157.363 Y70.692 E.01779
G1 X157.736 Y71.056 E.01634
G1 X157.926 Y71.327 E.01038
G1 X158.097 Y71.663 E.01182
G1 X158.189 Y71.944 E.00927
G1 X158.265 Y72.5 E.0176
G1 X158.189 Y73.056 E.0176
G1 X158.097 Y73.337 E.00927
G1 X157.91 Y73.705 E.01294
G1 X157.736 Y73.944 E.00927
G1 X157.444 Y74.236 E.01295
G1 X157.21 Y74.407 E.00909
G1 X156.866 Y74.585 E.01214
G1 X156.594 Y74.676 E.00899
G1 X156.41 Y74.705 E.00584
M204 S1000
G1 X156.292 Y74.343 F10800
M204 S800
G1 F1200
G1 X156.022 Y74.387 E.00858
G1 X155.503 Y74.316 E.01642
G1 X154.966 Y74.074 E.01847
G1 X154.53 Y73.677 E.01849
G1 X154.25 Y73.193 E.01753
G1 X154.121 Y72.596 E.01915
G1 X154.177 Y72.032 E.01777
G1 X154.423 Y71.473 E.01915
G1 X154.823 Y71.03 E.01871
G1 X155.335 Y70.739 E.01847
G1 X155.882 Y70.622 E.01754
G1 X156.489 Y70.683 E.01913
G1 X156.987 Y70.903 E.01707
G1 X157.177 Y71.03 E.00717
G1 X157.547 Y71.42 E.01686
G1 X157.816 Y72.003 E.02013
G1 X157.888 Y72.5 E.01575
G1 X157.816 Y72.997 E.01575
G1 X157.761 Y73.165 E.00554
G1 X157.47 Y73.677 E.01847
G1 X157.037 Y74.072 E.01838
G1 X156.53 Y74.305 E.01749
G1 X156.351 Y74.334 E.00569
M204 S1000
G1 X156.233 Y73.968 F10800
M204 S800
;TYPE:External perimeter
G1 F1200
G1 X155.97 Y74.008 E.00834
G1 X155.506 Y73.925 E.01478
G1 X155.09 Y73.703 E.01478
G1 X154.763 Y73.364 E.01477
G1 X154.567 Y72.965 E.01394
G1 X154.491 Y72.472 E.01564
G1 X154.567 Y72.034 E.01394
G1 X154.797 Y71.59 E.01568
G1 X155.137 Y71.262 E.01481
G1 X155.561 Y71.057 E.01477
G1 X156 Y70.993 E.01391
G1 X156.494 Y71.075 E.0157
G1 X156.91 Y71.297 E.01478
G1 X157.254 Y71.669 E.01589
G1 X157.444 Y72.062 E.01369
G1 X157.508 Y72.529 E.01478
G1 X157.425 Y72.994 E.01481
G1 X157.203 Y73.41 E.01478
G1 X156.864 Y73.737 E.01477
G1 X156.465 Y73.933 E.01394
G1 X156.292 Y73.959 E.00549
M204 S1000
;WIPE_START
G1 F8640
G1 X156.233 Y73.968 E-.01378
G1 X155.97 Y74.008 E-.06143
G1 X155.506 Y73.925 E-.10884
G1 X155.09 Y73.703 E-.10888
G1 X154.763 Y73.364 E-.10876
G1 X154.567 Y72.965 E-.10265
G1 X154.491 Y72.472 E-.11518
G1 X154.567 Y72.034 E-.10265
G1 X154.722 Y71.734 E-.07783
;WIPE_END
G1 Z.6 F720
G1 X158.265 Y96.5 F10800
G1 Z.2 F720
G1 E.8 F2100
M204 S800
;TYPE:Perimeter
G1 F1200
G1 X158.189 Y97.056 E.0176
G1 X158.082 Y97.366 E.01028
G1 X157.808 Y97.863 E.01779
G1 X157.444 Y98.236 E.01634
G1 X157.173 Y98.426 E.01038
G1 X156.571 Y98.686 E.02056
G1 X156 Y98.765 E.01807
G1 X155.444 Y98.689 E.0176
G1 X155.163 Y98.597 E.00927
G1 X154.795 Y98.41 E.01294
G1 X154.556 Y98.236 E.00927
G1 X154.264 Y97.944 E.01295
G1 X154.093 Y97.71 E.00909
G1 X153.915 Y97.366 E.01214
G1 X153.824 Y97.094 E.00899
G1 X153.736 Y96.537 E.01768
G1 X153.804 Y95.975 E.01775
G1 X153.89 Y95.701 E.009
G1 X154.161 Y95.178 E.01847
G1 X154.556 Y94.764 E.01794
G1 X154.795 Y94.59 E.00927
G1 X155.286 Y94.351 E.01712
G1 X155.821 Y94.25 E.01707
G1 X156.108 Y94.247 E.009
G1 X156.685 Y94.341 E.01833
G1 X157.205 Y94.59 E.01808
G1 X157.444 Y94.764 E.00927
G1 X157.736 Y95.056 E.01295
G1 X157.91 Y95.295 E.00927
G1 X158.097 Y95.663 E.01294
G1 X158.189 Y95.944 E.00927
G1 X158.257 Y96.441 E.01573
M204 S1000
G1 X157.871 Y96.501 F10800
M204 S800
G1 F1200
G1 X157.816 Y96.997 E.01565
G1 X157.59 Y97.502 E.01735
G1 X157.47 Y97.677 E.00665
G1 X157.08 Y98.047 E.01686
G1 X156.506 Y98.315 E.01986
G1 X156 Y98.388 E.01603
G1 X155.503 Y98.316 E.01575
G1 X154.966 Y98.074 E.01847
G1 X154.53 Y97.677 E.01849
G1 X154.25 Y97.193 E.01753
G1 X154.121 Y96.596 E.01915
G1 X154.177 Y96.032 E.01777
G1 X154.423 Y95.473 E.01915
G1 X154.823 Y95.03 E.01871
G1 X155.335 Y94.739 E.01847
G1 X155.882 Y94.622 E.01754
G1 X156.489 Y94.683 E.01913
G1 X157.034 Y94.926 E.01871
G1 X157.47 Y95.323 E.01849
G1 X157.761 Y95.835 E.01847
G1 X157.881 Y96.412 E.01848
G1 X157.878 Y96.441 E.00091
M204 S1000
G1 X157.504 Y96.499 F10800
M204 S800
;TYPE:External perimeter
G1 F1200
G1 X157.508 Y96.529 E.00095
G1 X157.41 Y97.024 E.01582
G1 X157.203 Y97.41 E.01373
G1 X156.831 Y97.754 E.01589
G1 X156.438 Y97.944 E.01369
G1 X155.97 Y98.008 E.01481
G1 X155.506 Y97.925 E.01478
G1 X155.09 Y97.703 E.01478
G1 X154.797 Y97.41 E.01299
G1 X154.567 Y96.965 E.01571
G1 X154.491 Y96.472 E.01564
G1 X154.567 Y96.034 E.01394
G1 X154.797 Y95.59 E.01568
G1 X155.137 Y95.262 E.01481
G1 X155.561 Y95.057 E.01477
G1 X156 Y94.993 E.01391
G1 X156.494 Y95.075 E.0157
G1 X156.91 Y95.297 E.01478
G1 X157.238 Y95.637 E.01481
G1 X157.444 Y96.062 E.01481
G1 X157.496 Y96.44 E.01196
M204 S1000
;WIPE_START
G1 F8640
G1 X157.504 Y96.499 E-.01375
G1 X157.508 Y96.529 E-.00699
G1 X157.41 Y97.024 E-.11652
G1 X157.203 Y97.41 E-.10114
G1 X156.831 Y97.754 E-.11699
G1 X156.438 Y97.944 E-.10079
G1 X155.97 Y98.008 E-.10907
G1 X155.506 Y97.925 E-.10884
G1 X155.09 Y97.703 E-.10888
G1 X155.038 Y97.651 E-.01703
;WIPE_END
G1 Z.6 F720
G1 X113.798 Y92.27 F10800
G1 Z.2 F720
G1 E.8 F2100
M204 S800
;TYPE:Perimeter
G1 F1200
G1 X113.785 Y92.291 E.00077
G1 X113.54 Y92.466 E.00944
G1 X113.232 Y92.564 E.01013
G1 X98.879 Y92.564 E.45003
G1 X98.514 Y92.491 E.01167
G1 X98.212 Y92.288 E.01141
G1 X98.009 Y91.986 E.01141
G1 X97.936 Y91.621 E.01167
G1 X97.936 Y87.61 E.12576
G1 X97.456 Y87.43 E.01607
G1 X97.205 Y87.076 E.01361
G1 X97.136 Y86.721 E.01134
G1 X97.136 Y82.279 E.13928
G1 X97.205 Y81.924 E.01134
G1 X97.456 Y81.57 E.01361
G1 X97.936 Y81.39 E.01607
G1 X97.936 Y77.379 E.12576
G1 X98.009 Y77.014 E.01167
G1 X98.212 Y76.712 E.01141
G1 X98.514 Y76.509 E.01141
G1 X98.879 Y76.436 E.01167
G1 X113.121 Y76.436 E.44655
G1 X113.409 Y76.481 E.00914
G1 X113.684 Y76.622 E.00969
G1 X113.904 Y76.852 E.00998
G1 X114.015 Y77.078 E.00789
G1 X114.064 Y77.379 E.00956
G1 X114.064 Y91.621 E.44655
G1 X114.015 Y91.922 E.00956
G1 X113.83 Y92.219 E.01097
M204 S1000
G1 X113.532 Y92.003 F10800
M204 S800
G1 F1200
G1 X113.52 Y92.023 E.00073
G1 X113.294 Y92.16 E.00829
G1 X113.121 Y92.187 E.00549
G1 X98.879 Y92.187 E.44655
G1 X98.66 Y92.143 E.007
G1 X98.45 Y91.991 E.00813
G1 X98.332 Y91.768 E.00791
G1 X98.313 Y90.93 E.02628
G1 X98.313 Y87.287 E.11422
G1 X98.079 Y87.287 E.00734
G1 X97.705 Y87.146 E.01253
G1 X97.554 Y86.934 E.00816
G1 X97.513 Y86.721 E.0068
G1 X97.513 Y82.279 E.13928
G1 X97.554 Y82.066 E.0068
G1 X97.705 Y81.854 E.00816
G1 X98.079 Y81.713 E.01253
G1 X98.313 Y81.713 E.00734
G1 X98.313 Y77.379 E.13589
G1 X98.357 Y77.16 E.007
G1 X98.509 Y76.95 E.00813
G1 X98.732 Y76.832 E.00791
G1 X99.489 Y76.813 E.02374
G1 X113.121 Y76.813 E.42742
G1 X113.373 Y76.872 E.00811
G1 X113.591 Y77.063 E.00909
G1 X113.687 Y77.379 E.01036
G1 X113.687 Y91.621 E.44655
G1 X113.658 Y91.802 E.00575
G1 X113.564 Y91.953 E.00558
M204 S1000
G1 X113.268 Y91.722 F10800
M204 S800
;TYPE:External perimeter
G1 F1200
G1 X113.254 Y91.755 E.00112
G1 X113.121 Y91.81 E.00451
G1 X98.879 Y91.81 E.44655
G1 X98.736 Y91.745 E.00493
G1 X98.69 Y91.621 E.00415
G1 X98.69 Y86.91 E.14771
G1 X98.079 Y86.91 E.01916
G1 X97.92 Y86.823 E.00568
G1 X97.89 Y86.721 E.00333
G1 X97.89 Y82.279 E.13928
